pictures/link-instagram.svg

<svg width="24" height="24" viewBox="0 0 24 24" fill="none" xmlns="http://www.w3.org/2000/svg">
<path fill-rule="evenodd" clip-rule="evenodd" d="M24 12C24 18.6274 18.6274 24 12 24C5.37258 24 0 18.6274 0 12C0 5.37258 5.37258 0 12 0C18.6274 0 24 5.37258 24 12ZM14.4732 6.036C13.8336 6.006 13.6302 6 12 6C10.3698 6 10.1664 6.0078 9.5268 6.036C8.8872 6.066 8.4528 6.1662 8.07 6.315C7.66946 6.46544 7.3066 6.70154 7.0068 7.0068C6.70128 7.30639 6.46514 7.66931 6.315 8.07C6.1662 8.4528 6.066 8.8872 6.036 9.5268C6.006 10.1664 6 10.3698 6 12C6 13.6302 6.0078 13.8336 6.036 14.4732C6.066 15.1122 6.1662 15.5478 6.315 15.93C6.46556 16.3305 6.70164 16.6933 7.0068 16.9932C7.30652 17.2986 7.6694 17.5347 8.07 17.685C8.4528 17.8332 8.8878 17.934 9.5268 17.964C10.1664 17.994 10.3698 18 12 18C13.6302 18 13.8336 17.9922 14.4732 17.964C15.1122 17.934 15.5478 17.8332 15.93 17.685C16.3304 17.5343 16.6932 17.2982 16.9932 16.9932C17.2987 16.6936 17.5348 16.3307 17.685 15.93C17.8332 15.5472 17.934 15.1122 17.964 14.4732C17.994 13.8336 18 13.6302 18 12C18 10.3698 17.9922 10.1664 17.964 9.5268C17.934 8.8878 17.8332 8.4522 17.685 8.07C17.5344 7.66955 17.2983 7.30674 16.9932 7.0068C16.6596 6.6738 16.326 6.4674 15.93 6.315C15.5472 6.1662 15.1122 6.066 14.4732 6.036ZM9.87868 9.87868C10.4413 9.31607 11.2044 9 12 9C12.7956 9 13.5587 9.31607 14.1213 9.87868C14.6839 10.4413 15 11.2044 15 12C15 12.7956 14.6839 13.5587 14.1213 14.1213C13.5587 14.6839 12.7956 15 12 15C11.2044 15 10.4413 14.6839 9.87868 14.1213C9.31607 13.5587 9 12.7956 9 12C9 11.2044 9.31607 10.4413 9.87868 9.87868ZM15.6803 8.31967C15.821 8.46032 15.9 8.65109 15.9 8.85C15.9 9.04891 15.821 9.23968 15.6803 9.38033C15.5397 9.52098 15.3489 9.6 15.15 9.6C14.9511 9.6 14.7603 9.52098 14.6197 9.38033C14.479 9.23968 14.4 9.04891 14.4 8.85C14.4 8.65109 14.479 8.46032 14.6197 8.31967C14.7603 8.17902 14.9511 8.1 15.15 8.1C15.3489 8.1 15.5397 8.17902 15.6803 8.31967ZM13.2728 10.7272C12.9352 10.3896 12.4774 10.2 12 10.2C11.5226 10.2 11.0648 10.3896 10.7272 10.7272C10.3896 11.0648 10.2 11.5226 10.2 12C10.2 12.4774 10.3896 12.9352 10.7272 13.2728C11.0648 13.6104 11.5226 13.8 12 13.8C12.4774 13.8 12.9352 13.6104 13.2728 13.2728C13.6104 12.9352 13.8 12.4774 13.8 12C13.8 11.5226 13.6104 11.0648 13.2728 10.7272Z" fill="#FCFCFC"/>
</svg>

<svg width="24" height="24" fill="none" xmlns="http://www.w3.org/2000/svg"><path fill-rule="evenodd" clip-rule="evenodd" d="M24 12c0 6.627-5.373 12-12 12S0 18.627 0 12 5.373 0 12 0s12 5.373 12 12Zm-9.527-5.964C13.833 6.006 13.63 6 12 6s-1.834.008-2.473.036c-.64.03-1.074.13-1.457.279-.4.15-.763.387-1.063.692-.306.3-.542.662-.692 1.063-.149.383-.249.817-.279 1.457C6.006 10.167 6 10.37 6 12s.008 1.834.036 2.473c.03.64.13 1.075.279 1.457.15.4.387.763.692 1.063.3.306.662.542 1.063.692.383.148.818.249 1.457.279.64.03.843.036 2.473.036s1.834-.008 2.473-.036c.64-.03 1.075-.13 1.457-.279.4-.15.763-.387 1.063-.692.306-.3.542-.662.692-1.063.148-.383.249-.818.279-1.457.03-.64.036-.843.036-2.473s-.008-1.834-.036-2.473c-.03-.64-.13-1.075-.279-1.457-.15-.4-.387-.763-.692-1.063a2.925 2.925 0 0 0-1.063-.692c-.383-.149-.818-.249-1.457-.279ZM9.88 9.879a3 3 0 1 1 4.242 4.243A3 3 0 0 1 9.88 9.879Zm5.801-1.56a.75.75 0 1 1-1.06 1.061.75.75 0 0 1 1.06-1.06Zm-2.407 2.408a1.8 1.8 0 1 0-2.546 2.546 1.8 1.8 0 0 0 2.546-2.546Z" fill="#FCFCFC"/></svg>
